X: 1
T:Mazurka-Valse morvandelle
C:Trad 1, 46
M:3/4
L:1/8
K:G
B, DB,|A,2 G,B, DB,|E3 B, DB,|A,2 G,B, DB,|C3 A, B,C|\
F2F2F2|C3A, B,C|1 E2E2E2|\
B,3 B, DB,:|2 FE DC B,A,|G,4 B,C||
D2 DB, DG|D2 DB, DG|FE ED FE|AG FE EF|E2D2B,C|\
D2 DB, DG|D2 DB, DG|FE ED FE|1 G2D2 B,C:|2 G6||
